; generated by Slic3r 1.3.1-dev on 2018-08-14 at 21:41:15

; external perimeters extrusion width = 0.44mm (2.38mm^3/s)
; perimeters extrusion width = 0.56mm (6.20mm^3/s)
; infill extrusion width = 0.50mm (7.31mm^3/s)
; solid infill extrusion width = 0.56mm (2.07mm^3/s)
; top infill extrusion width = 0.56mm (1.55mm^3/s)
; support material extrusion width = 0.44mm (4.76mm^3/s)

M107
M190 S60 ; set bed temperature and wait for it to be reached
M104 S205 T1 ; set temperature
G28 ; home all axes
G1 Z5 F5000 ; lift nozzle

; Filament gcode

; Filament gcode

M109 S205 T1 ; set temperature and wait for it to be reached
G21 ; set units to millimeters
G90 ; use absolute coordinates
M82 ; use absolute distances for extrusion
G92 E0
G92 E0
T1
G1 Z0.200 F7800.000
G1 E-6.50000 F2400.00000
G92 E0
G1 X86.410 Y111.032 F7800.000
G1 E6.50000 F2400.00000
G1 F1800
G1 X87.392 Y110.319 E6.53604
G1 X87.901 Y109.987 E6.55407
G1 X88.626 Y109.555 E6.57913
G1 X89.703 Y108.994 E6.61518
G1 X90.254 Y108.740 E6.63321
G1 X91.148 Y108.377 E6.66184
G1 X92.310 Y107.983 E6.69828
G1 X93.483 Y107.673 E6.73431
G1 X94.675 Y107.442 E6.77037
G1 X95.512 Y107.329 E6.79543
G1 X96.117 Y107.272 E6.81346
G1 X97.166 Y107.221 E6.84465
G1 X122.670 Y106.640 E7.60211
G1 X123.277 Y106.657 E7.62014
G1 X124.120 Y106.713 E7.64522
G1 X125.078 Y106.826 E7.67386
G1 X125.689 Y106.926 E7.69224
G1 X126.285 Y107.043 E7.71027
G1 X127.106 Y107.240 E7.73535
G1 X128.043 Y107.515 E7.76435
G1 X128.841 Y107.794 E7.78943
G1 X129.746 Y108.162 E7.81843
G1 X130.298 Y108.415 E7.83646
G1 X131.050 Y108.798 E7.86153
G1 X131.897 Y109.284 E7.89053
G1 X132.608 Y109.740 E7.91561
G1 X133.402 Y110.309 E7.94461
G1 X134.063 Y110.835 E7.96969
G1 X134.796 Y111.481 E7.99868
G1 X135.400 Y112.071 E8.02376
G1 X136.065 Y112.787 E8.05278
G1 X136.607 Y113.434 E8.07784
G1 X137.195 Y114.214 E8.10684
G1 X137.670 Y114.912 E8.13192
G1 X138.177 Y115.747 E8.16092
G1 X138.579 Y116.490 E8.18600
G1 X138.999 Y117.372 E8.21499
G1 X139.324 Y118.151 E8.24007
G1 X139.654 Y119.071 E8.26907
G1 X139.899 Y119.879 E8.29415
G1 X140.131 Y120.815 E8.32278
G1 X140.255 Y121.422 E8.34118
G1 X140.389 Y122.256 E8.36625
G1 X140.495 Y123.227 E8.39525
G1 X140.545 Y124.070 E8.42033
G1 X140.553 Y125.047 E8.44934
G1 X140.518 Y125.890 E8.47441
G1 X140.428 Y126.863 E8.50341
G1 X140.307 Y127.699 E8.52849
G1 X140.120 Y128.657 E8.55748
G1 X139.916 Y129.477 E8.58256
G1 X139.633 Y130.412 E8.61156
G1 X139.348 Y131.207 E8.63664
G1 X138.874 Y132.325 E8.67269
G1 X138.438 Y133.199 E8.70170
G1 X137.832 Y134.251 E8.73775
G1 X137.164 Y135.250 E8.77343
G1 X136.648 Y135.934 E8.79886
G1 X135.862 Y136.860 E8.83491
G1 X135.186 Y137.565 E8.86391
G1 X134.294 Y138.388 E8.89996
G1 X133.642 Y138.925 E8.92504
G1 X132.663 Y139.642 E8.96109
G1 X131.637 Y140.292 E8.99714
G1 X130.782 Y140.764 E9.02614
G1 X130.022 Y141.134 E9.05121
G1 X128.903 Y141.603 E9.08726
G1 X127.754 Y141.996 E9.12331
G1 X126.581 Y142.310 E9.15936
G1 X125.624 Y142.506 E9.18836
G1 X124.789 Y142.633 E9.21344
G1 X123.818 Y142.731 E9.24244
G1 X123.019 Y142.773 E9.26618
G1 X97.395 Y143.359 E10.02717
G1 X96.432 Y143.327 E10.05580
G1 X95.814 Y143.279 E10.07420
G1 X95.210 Y143.212 E10.09225
G1 X94.376 Y143.084 E10.11730
G1 X93.419 Y142.889 E10.14630
G1 X92.830 Y142.741 E10.16433
G1 X92.019 Y142.503 E10.18941
G1 X91.097 Y142.181 E10.21840
G1 X89.989 Y141.717 E10.25409
G1 X89.218 Y141.342 E10.27953
G1 X88.159 Y140.749 E10.31558
G1 X87.142 Y140.086 E10.35163
G1 X86.172 Y139.356 E10.38768
G1 X85.253 Y138.563 E10.42373
G1 X84.389 Y137.709 E10.45977
G1 X83.585 Y136.800 E10.49582
G1 X82.843 Y135.838 E10.53187
G1 X82.168 Y134.829 E10.56792
G1 X81.562 Y133.777 E10.60397
G1 X81.028 Y132.687 E10.64002
G1 X80.568 Y131.563 E10.67607
G1 X80.185 Y130.411 E10.71212
G1 X79.880 Y129.236 E10.74816
G1 X79.655 Y128.043 E10.78421
G1 X79.510 Y126.837 E10.82026
G1 X79.447 Y125.625 E10.85631
G1 X79.465 Y124.411 E10.89236
G1 X79.565 Y123.201 E10.92841
G1 X79.745 Y122.001 E10.96445
G1 X80.006 Y120.815 E11.00051
G1 X80.274 Y119.875 E11.02951
G1 X80.676 Y118.730 E11.06555
G1 X81.154 Y117.614 E11.10160
G1 X81.707 Y116.533 E11.13765
G1 X82.330 Y115.491 E11.17370
G1 X83.022 Y114.494 E11.20975
G1 X83.780 Y113.545 E11.24579
G1 X84.600 Y112.649 E11.28185
G1 X85.478 Y111.810 E11.31790
G1 X86.363 Y111.069 E11.35218
G1 X86.632 Y111.312 F7800.000
G1 F1800
G1 X87.595 Y110.612 E11.38751
G1 X88.094 Y110.288 E11.40518
G1 X88.799 Y109.868 E11.42954
G1 X89.854 Y109.317 E11.46487
G1 X90.395 Y109.069 E11.48254
G1 X91.277 Y108.709 E11.51083
G1 X92.417 Y108.324 E11.54655
G1 X93.566 Y108.020 E11.58186
G1 X94.735 Y107.794 E11.61721
G1 X95.548 Y107.684 E11.64156
G1 X96.141 Y107.628 E11.65923
G1 X97.174 Y107.578 E11.68995
G1 X122.670 Y106.997 E12.44717
G1 X123.265 Y107.014 E12.46484
G1 X124.084 Y107.069 E12.48921
G1 X124.676 Y107.132 E12.50688
G1 X125.630 Y107.278 E12.53552
G1 X126.434 Y107.442 E12.55989
G1 X127.357 Y107.679 E12.58818
G1 X127.937 Y107.856 E12.60620
G1 X128.712 Y108.127 E12.63057
G1 X129.605 Y108.490 E12.65921
G1 X130.147 Y108.739 E12.67689
G1 X130.878 Y109.111 E12.70125
G1 X131.715 Y109.591 E12.72989
G1 X132.405 Y110.034 E12.75426
G1 X133.189 Y110.596 E12.78290
G1 X133.831 Y111.107 E12.80727
G1 X134.555 Y111.745 E12.83591
G1 X135.143 Y112.318 E12.86027
G1 X135.790 Y113.016 E12.88855
G1 X136.184 Y113.479 E12.90659
G1 X136.689 Y114.125 E12.93095
G1 X137.244 Y114.914 E12.95959
G1 X137.682 Y115.608 E12.98396
G1 X138.155 Y116.449 E13.01261
G1 X138.521 Y117.184 E13.03697
G1 X138.907 Y118.068 E13.06562
G1 X139.197 Y118.836 E13.08998
G1 X139.492 Y119.754 E13.11862
G1 X139.703 Y120.547 E13.14299
G1 X139.833 Y121.128 E13.16066
G1 X140.003 Y122.077 E13.18930
G1 X140.106 Y122.892 E13.21367
G1 X140.179 Y123.854 E13.24231
G1 X140.199 Y124.674 E13.26667
G1 X140.175 Y125.638 E13.29532
G1 X140.113 Y126.457 E13.31969
G1 X139.992 Y127.415 E13.34835
G1 X139.848 Y128.222 E13.37269
G1 X139.631 Y129.162 E13.40134
G1 X139.406 Y129.951 E13.42570
G1 X139.096 Y130.864 E13.45434
G1 X138.793 Y131.627 E13.47871
G1 X138.292 Y132.706 E13.51405
G1 X137.833 Y133.555 E13.54269
G1 X137.204 Y134.566 E13.57803
G1 X136.509 Y135.532 E13.61336
G1 X135.993 Y136.170 E13.63773
G1 X135.193 Y137.051 E13.67307
G1 X134.336 Y137.876 E13.70840
G1 X133.425 Y138.642 E13.74374
G1 X132.465 Y139.345 E13.77908
G1 X131.653 Y139.867 E13.80772
G1 X130.615 Y140.448 E13.84305
G1 X129.551 Y140.953 E13.87802
G1 X128.779 Y141.268 E13.90276
G1 X127.653 Y141.653 E13.93809
G1 X126.504 Y141.962 E13.97343
G1 X125.559 Y142.155 E14.00207
G1 X124.747 Y142.279 E14.02644
G1 X123.788 Y142.376 E14.05508
G1 X123.011 Y142.416 E14.07818
G1 X97.401 Y143.002 E14.83875
G1 X96.807 Y142.988 E14.85642
G1 X95.844 Y142.923 E14.88506
G1 X95.252 Y142.857 E14.90275
G1 X94.441 Y142.733 E14.92710
G1 X93.496 Y142.540 E14.95574
G1 X92.701 Y142.336 E14.98011
G1 X91.792 Y142.052 E15.00838
G1 X91.221 Y141.846 E15.02642
G1 X90.134 Y141.391 E15.06140
G1 X89.385 Y141.027 E15.08612
G1 X88.347 Y140.445 E15.12146
G1 X87.350 Y139.796 E15.15680
G1 X86.399 Y139.080 E15.19213
G1 X85.498 Y138.303 E15.22747
G1 X84.651 Y137.466 E15.26280
G1 X83.862 Y136.575 E15.29814
G1 X83.135 Y135.633 E15.33348
G1 X82.473 Y134.644 E15.36881
G1 X81.879 Y133.613 E15.40415
G1 X81.355 Y132.544 E15.43948
G1 X80.904 Y131.443 E15.47482
G1 X80.528 Y130.314 E15.51016
G1 X80.229 Y129.162 E15.54549
G1 X80.008 Y127.992 E15.58083
G1 X79.866 Y126.811 E15.61617
G1 X79.804 Y125.622 E15.65150
G1 X79.821 Y124.432 E15.68684
G1 X79.919 Y123.246 E15.72218
G1 X80.096 Y122.069 E15.75751
G1 X80.351 Y120.907 E15.79285
G1 X80.615 Y119.978 E15.82150
G1 X81.010 Y118.856 E15.85683
G1 X81.479 Y117.762 E15.89216
G1 X82.021 Y116.703 E15.92750
G1 X82.632 Y115.681 E15.96284
G1 X83.311 Y114.704 E15.99817
G1 X84.054 Y113.774 E16.03351
G1 X84.857 Y112.896 E16.06886
G1 X85.718 Y112.074 E16.10419
G1 X86.585 Y111.349 E16.13776
G1 X86.855 Y111.591 F7800.000
G1 F1800
G1 X87.798 Y110.906 E16.17237
G1 X88.287 Y110.588 E16.18969
G1 X88.971 Y110.180 E16.21333
G1 X90.005 Y109.641 E16.24796
G1 X90.535 Y109.397 E16.26527
G1 X91.406 Y109.043 E16.29319
G1 X92.523 Y108.665 E16.32820
G1 X93.650 Y108.368 E16.36280
G1 X94.795 Y108.146 E16.39744
G1 X95.584 Y108.040 E16.42108
G1 X96.165 Y107.985 E16.43840
G1 X97.182 Y107.935 E16.46865
G1 X122.670 Y107.354 E17.22562
G1 X123.253 Y107.370 E17.24294
G1 X124.048 Y107.424 E17.26659
G1 X124.982 Y107.534 E17.29451
G1 X125.570 Y107.630 E17.31219
G1 X126.142 Y107.743 E17.32951
G1 X126.917 Y107.929 E17.35316
G1 X127.831 Y108.197 E17.38145
G1 X128.583 Y108.460 E17.40510
G1 X129.465 Y108.819 E17.43339
G1 X130.187 Y109.156 E17.45704
G1 X131.029 Y109.602 E17.48533
G1 X131.713 Y110.010 E17.50898
G1 X132.496 Y110.531 E17.53690
G1 X132.977 Y110.883 E17.55459
G1 X133.600 Y111.379 E17.57824
G1 X134.315 Y112.009 E17.60652
G1 X134.885 Y112.565 E17.63018
G1 X135.525 Y113.254 E17.65811
G1 X135.910 Y113.708 E17.67578
G1 X136.401 Y114.336 E17.69943
G1 X136.949 Y115.115 E17.72772
G1 X137.374 Y115.789 E17.75138
G1 X137.841 Y116.619 E17.77967
G1 X138.196 Y117.332 E17.80331
G1 X138.577 Y118.205 E17.83161
G1 X138.859 Y118.950 E17.85525
G1 X139.150 Y119.858 E17.88354
G1 X139.355 Y120.627 E17.90719
G1 X139.483 Y121.196 E17.92451
G1 X139.650 Y122.134 E17.95279
G1 X139.750 Y122.925 E17.97645
G1 X139.822 Y123.875 E18.00474
G1 X139.842 Y124.671 E18.02839
G1 X139.818 Y125.623 E18.05667
G1 X139.758 Y126.418 E18.08033
G1 X139.638 Y127.364 E18.10864
G1 X139.498 Y128.147 E18.13227
G1 X139.284 Y129.076 E18.16056
G1 X139.066 Y129.842 E18.18421
G1 X138.760 Y130.744 E18.21250
G1 X138.466 Y131.484 E18.23615
G1 X137.975 Y132.542 E18.27077
G1 X137.522 Y133.380 E18.29906
G1 X136.905 Y134.370 E18.33369
G1 X136.447 Y135.022 E18.35734
G1 X135.723 Y135.936 E18.39196
G1 X134.939 Y136.799 E18.42659
G1 X134.100 Y137.608 E18.46121
G1 X133.207 Y138.359 E18.49584
G1 X132.266 Y139.048 E18.53046
G1 X131.282 Y139.673 E18.56508
G1 X130.447 Y140.133 E18.59337
G1 X129.731 Y140.482 E18.61702
G1 X128.656 Y140.933 E18.65165
G1 X127.553 Y141.310 E18.68627
G1 X126.426 Y141.613 E18.72090
G1 X125.493 Y141.804 E18.74918
G1 X124.706 Y141.924 E18.77284
G1 X123.758 Y142.020 E18.80112
G1 X123.002 Y142.059 E18.82358
G1 X97.621 Y142.645 E19.57738
G1 X97.038 Y142.638 E19.59470
G1 X96.242 Y142.598 E19.61835
G1 X95.307 Y142.504 E19.64627
G1 X94.717 Y142.418 E19.66397
G1 X93.934 Y142.272 E19.68760
G1 X93.008 Y142.050 E19.71589
G1 X92.244 Y141.825 E19.73954
G1 X91.691 Y141.639 E19.75686
G1 X90.606 Y141.211 E19.79148
G1 X89.553 Y140.711 E19.82611
G1 X88.535 Y140.142 E19.86073
G1 X87.558 Y139.505 E19.89536
G1 X86.626 Y138.805 E19.92998
G1 X85.743 Y138.043 E19.96461
G1 X84.913 Y137.224 E19.99923
G1 X84.140 Y136.351 E20.03385
G1 X83.553 Y135.600 E20.06215
G1 X82.892 Y134.639 E20.09677
G1 X82.297 Y133.636 E20.13138
G1 X81.771 Y132.595 E20.16602
G1 X81.316 Y131.522 E20.20064
G1 X80.934 Y130.420 E20.23526
G1 X80.626 Y129.295 E20.26990
G1 X80.396 Y128.152 E20.30452
G1 X80.242 Y126.996 E20.33914
G1 X80.166 Y125.832 E20.37376
G1 X80.169 Y124.666 E20.40839
G1 X80.250 Y123.503 E20.44300
G1 X80.409 Y122.347 E20.47764
G1 X80.645 Y121.206 E20.51225
G1 X80.957 Y120.082 E20.54688
G1 X81.344 Y118.982 E20.58150
G1 X81.804 Y117.911 E20.61612
G1 X82.335 Y116.872 E20.65075
G1 X82.934 Y115.872 E20.68537
G1 X83.599 Y114.914 E20.71999
G1 X84.327 Y114.003 E20.75462
G1 X85.115 Y113.143 E20.78925
G1 X85.959 Y112.338 E20.82387
G1 X86.808 Y111.628 E20.85673
G1 E14.35673 F2400.00000
G92 E0
G1 X124.723 Y129.173 F7800.000
G1 E6.50000 F2400.00000
G1 F1800
G1 X122.633 Y129.173 E6.56204
G1 X122.633 Y122.454 E6.76153
G1 X118.600 Y122.454 E6.88129
G1 X118.600 Y130.218 E7.11180
G1 X116.510 Y130.218 E7.17384
G1 X116.510 Y120.160 E7.47248
G1 X131.227 Y120.160 E7.90943
G1 X131.227 Y122.454 E7.97756
G1 X124.723 Y122.454 E8.17067
G1 X124.723 Y129.113 E8.36838
G1 X124.621 Y129.560 F7800.000
G1 E1.86838 F2400.00000
G92 E0
G1 X115.859 Y125.420 F7800.000
G1 E6.50000 F2400.00000
G1 F1800
G1 X115.628 Y125.841 E6.51427
G1 X115.409 Y126.095 E6.52422
G1 X115.026 Y126.385 E6.53849
G1 X114.727 Y126.526 E6.54831
G1 X114.412 Y126.614 E6.55800
G1 X114.083 Y126.649 E6.56782
G1 X113.605 Y126.598 E6.58209
G1 X113.291 Y126.496 E6.59191
G1 X113.001 Y126.345 E6.60161
G1 X112.734 Y126.141 E6.61158
G1 X112.424 Y125.781 E6.62570
G1 X112.265 Y125.491 E6.63552
G1 X112.155 Y125.174 E6.64549
G1 X112.096 Y124.702 E6.65961
G1 X112.125 Y124.363 E6.66970
G1 X112.263 Y123.908 E6.68382
G1 X112.422 Y123.618 E6.69364
G1 X112.625 Y123.363 E6.70333
G1 X112.870 Y123.141 E6.71315
G1 X113.287 Y122.901 E6.72742
G1 X113.601 Y122.799 E6.73725
G1 X113.934 Y122.750 E6.74721
G1 X114.408 Y122.781 E6.76134
G1 X114.731 Y122.871 E6.77128
G1 X115.157 Y123.093 E6.78555
G1 X115.412 Y123.304 E6.79537
G1 X115.630 Y123.559 E6.80534
G1 X115.859 Y123.976 E6.81946
G1 X115.955 Y124.292 E6.82928
G1 X115.996 Y124.620 E6.83910
G1 X115.956 Y125.099 E6.85337
G1 X115.877 Y125.363 E6.86153
G1 X115.859 Y125.420 F7800.000
G1 E0.36153 F2400.00000
G92 E0
G1 X115.796 Y119.446 F7800.000
G1 E6.50000 F2400.00000
G1 F1800
G1 X115.796 Y122.695 E6.59649
G1 X115.554 Y122.495 E6.60581
G1 X114.995 Y122.203 E6.62454
G1 X114.528 Y122.073 E6.63893
G1 X113.905 Y122.033 E6.65749
G1 X113.438 Y122.101 E6.67147
G1 X112.995 Y122.245 E6.68533
G1 X112.669 Y122.433 E6.69649
G1 X112.884 Y121.626 E6.72129
G1 X113.243 Y120.675 E6.75146
G1 X113.696 Y119.766 E6.78163
G1 X114.238 Y118.906 E6.81180
G1 X114.864 Y118.106 E6.84197
G1 X115.567 Y117.372 E6.87213
G1 X116.341 Y116.714 E6.90230
G1 X117.177 Y116.136 E6.93247
G1 X118.067 Y115.645 E6.96264
G1 X119.001 Y115.246 E6.99281
G1 X119.971 Y114.944 E7.02298
G1 X120.967 Y114.740 E7.05315
G1 X121.978 Y114.638 E7.08333
G1 X122.990 Y114.638 E7.11337
G1 X123.662 Y114.694 E7.13339
G1 X124.671 Y114.865 E7.16378
G1 X125.650 Y115.135 E7.19395
G1 X126.598 Y115.502 E7.22412
G1 X127.504 Y115.962 E7.25429
G1 X128.358 Y116.512 E7.28446
G1 X129.154 Y117.144 E7.31463
G1 X129.881 Y117.854 E7.34479
G1 X130.533 Y118.633 E7.37496
G1 X131.085 Y119.446 E7.40414
G1 X115.856 Y119.446 E7.85632
G1 X116.153 Y119.803 F7800.000
G1 F1800
G1 X116.153 Y123.434 E7.96415
G1 X115.992 Y123.476 E7.96908
G1 X115.926 Y123.354 E7.97319
G1 X115.663 Y123.049 E7.98516
G1 X115.355 Y122.794 E7.99700
G1 X114.863 Y122.537 E8.01350
G1 X114.468 Y122.427 E8.02567
G1 X113.919 Y122.392 E8.04201
G1 X113.520 Y122.450 E8.05398
G1 X113.141 Y122.573 E8.06582
G1 X112.659 Y122.851 E8.08232
G1 X112.317 Y123.159 E8.09601
G1 X112.184 Y123.087 E8.10051
G1 X112.273 Y122.533 E8.11715
G1 X112.544 Y121.517 E8.14839
G1 X112.916 Y120.532 E8.17963
G1 X113.385 Y119.590 E8.21087
G1 X113.946 Y118.701 E8.24211
G1 X114.594 Y117.872 E8.27335
G1 X115.322 Y117.112 E8.30459
G1 X116.123 Y116.430 E8.33583
G1 X116.989 Y115.832 E8.36707
G1 X117.910 Y115.324 E8.39831
G1 X118.878 Y114.911 E8.42954
G1 X119.882 Y114.598 E8.46078
G1 X120.913 Y114.387 E8.49202
G1 X121.960 Y114.281 E8.52327
G1 X123.004 Y114.281 E8.55428
G1 X123.706 Y114.339 E8.57520
G1 X124.748 Y114.516 E8.60657
G1 X125.763 Y114.795 E8.63781
G1 X126.744 Y115.175 E8.66905
G1 X127.681 Y115.652 E8.70029
G1 X128.567 Y116.221 E8.73153
G1 X129.390 Y116.876 E8.76277
G1 X130.143 Y117.611 E8.79401
G1 X130.819 Y118.417 E8.82524
G1 X131.410 Y119.288 E8.85648
G1 X131.688 Y119.803 E8.87387
G1 X116.213 Y119.803 E9.33334
G1 E2.83334 F2400.00000
G92 E0
G1 X115.796 Y130.932 F7800.000
G1 E6.50000 F2400.00000
G1 F1800
G1 X119.314 Y130.932 E6.60445
G1 X119.314 Y123.168 E6.83496
G1 X121.919 Y123.168 E6.91231
G1 X121.919 Y129.887 E7.11180
G1 X125.437 Y129.887 E7.21625
G1 X125.437 Y123.168 E7.41574
G1 X131.941 Y123.168 E7.60885
G1 X131.941 Y121.813 E7.64911
G1 X132.124 Y121.785 E7.65460
G1 X132.273 Y122.278 E7.66987
G1 X132.467 Y123.271 E7.69991
G1 X132.541 Y123.941 E7.71993
G1 X132.567 Y124.964 E7.75032
G1 X132.490 Y125.977 E7.78049
G1 X132.312 Y126.978 E7.81066
G1 X132.034 Y127.955 E7.84083
G1 X131.659 Y128.899 E7.87100
G1 X131.191 Y129.801 E7.90117
G1 X130.634 Y130.651 E7.93134
G1 X129.995 Y131.441 E7.96151
G1 X129.274 Y132.168 E7.99190
G1 X128.770 Y132.598 E8.01157
G1 X127.938 Y133.194 E8.04196
G1 X127.056 Y133.699 E8.07213
G1 X126.129 Y134.114 E8.10230
