; generated by Slic3r 1.3.1-dev on 2018-08-13 at 00:40:12

; external perimeters extrusion width = 0.44mm (2.38mm^3/s)
; perimeters extrusion width = 0.56mm (6.20mm^3/s)
; infill extrusion width = 0.50mm (7.31mm^3/s)
; solid infill extrusion width = 0.56mm (2.07mm^3/s)
; top infill extrusion width = 0.56mm (1.55mm^3/s)
; support material extrusion width = 0.44mm (4.76mm^3/s)

M107
M190 S60 ; set bed temperature and wait for it to be reached
M104 S205 T1 ; set temperature
G28 ; home all axes
G1 Z5 F5000 ; lift nozzle

; Filament gcode

; Filament gcode

M109 S205 T1 ; set temperature and wait for it to be reached
G21 ; set units to millimeters
G90 ; use absolute coordinates
M82 ; use absolute distances for extrusion
G92 E0
G92 E0
T1
G1 Z0.200 F7800.000
G1 E-6.50000 F2400.00000
G92 E0
G1 X107.017 Y102.459 F7800.000
G1 E6.50000 F2400.00000
G1 F1800
G1 X107.553 Y101.897 E6.52307
G1 X109.452 Y100.479 E6.59343
G1 X112.405 Y99.708 E6.68403
G1 X120.108 Y99.501 E6.91284
G1 X120.983 Y99.540 E6.93885
G1 X121.822 Y99.627 E6.96388
G1 X122.629 Y99.756 E6.98815
G1 X123.616 Y99.978 E7.01820
G1 X130.455 Y101.782 E7.22819
G1 X132.613 Y102.762 E7.29856
G1 X134.927 Y105.361 E7.40188
G1 X135.777 Y107.010 E7.45697
G1 X136.038 Y107.556 E7.47494
G1 X137.273 Y110.485 E7.56930
G1 X137.779 Y112.416 E7.62858
G1 X138.325 Y117.148 E7.77000
G1 X138.078 Y119.975 E7.85428
G1 X137.061 Y123.393 E7.96015
G1 X136.102 Y125.393 E8.02600
G1 X134.674 Y127.462 E8.10064
G1 X134.016 Y128.278 E8.13178
G1 X132.588 Y129.803 E8.19382
G1 X132.000 Y130.363 E8.21791
G1 X130.331 Y131.769 E8.28270
G1 X110.260 Y147.323 E9.03664
G1 X109.508 Y147.843 E9.06377
G1 X108.804 Y148.277 E9.08835
G1 X108.000 Y148.716 E9.11554
G1 X107.252 Y149.075 E9.14017
G1 X106.405 Y149.428 E9.16741
G1 X105.623 Y149.707 E9.19208
G1 X104.742 Y149.970 E9.21937
G1 X103.933 Y150.165 E9.24407
G1 X103.029 Y150.334 E9.27138
G1 X102.204 Y150.444 E9.29611
G1 X101.286 Y150.516 E9.32344
G1 X100.453 Y150.538 E9.34817
G1 X99.533 Y150.514 E9.37551
G1 X98.703 Y150.448 E9.40024
G1 X97.789 Y150.327 E9.42761
G1 X96.972 Y150.174 E9.45228
G1 X95.839 Y149.892 E9.48694
G1 X95.281 Y149.721 E9.50427
G1 X94.416 Y149.412 E9.53153
G1 X93.346 Y148.953 E9.56612
G1 X92.824 Y148.696 E9.58340
G1 X92.097 Y148.299 E9.60800
G1 X91.112 Y147.682 E9.64248
G1 X90.638 Y147.349 E9.65971
G1 X89.915 Y146.792 E9.68680
G1 X89.415 Y146.366 E9.70630
G1 X88.989 Y145.971 E9.72354
G1 X88.578 Y145.562 E9.74077
G1 X88.017 Y144.955 E9.76532
G1 X87.643 Y144.514 E9.78248
G1 X87.088 Y143.796 E9.80942
G1 X86.757 Y143.325 E9.82652
G1 X86.329 Y142.659 E9.85003
G1 X85.945 Y141.977 E9.87326
G1 X85.581 Y141.249 E9.89742
G1 X85.158 Y140.119 E9.93325
G1 X84.904 Y139.098 E9.96448
G1 X84.764 Y137.186 E10.02141
G1 X84.842 Y136.276 E10.04853
G1 X85.181 Y134.796 E10.09360
G1 X87.569 Y127.887 E10.31066
G1 X87.805 Y127.288 E10.32977
G1 X88.126 Y126.602 E10.35227
G1 X88.379 Y126.121 E10.36840
G1 X88.715 Y125.575 E10.38743
G1 X89.428 Y124.524 E10.42514
G1 X89.730 Y124.113 E10.44027
G1 X104.203 Y105.794 E11.13347
G1 X105.896 Y103.744 E11.21242
G1 X106.977 Y102.504 E11.26126
G1 X107.276 Y102.706 F7800.000
G1 F1800
G1 X107.812 Y102.143 E11.28432
G1 X109.668 Y100.770 E11.35288
G1 X112.418 Y100.065 E11.43718
G1 X120.107 Y99.858 E11.66556
G1 X120.953 Y99.895 E11.69069
G1 X121.778 Y99.981 E11.71533
G1 X122.559 Y100.107 E11.73880
G1 X123.525 Y100.323 E11.76821
G1 X130.364 Y102.128 E11.97820
G1 X132.462 Y103.092 E12.04675
G1 X134.610 Y105.526 E12.14315
G1 X135.460 Y107.174 E12.19819
G1 X135.712 Y107.701 E12.21554
G1 X136.944 Y110.623 E12.30971
G1 X137.425 Y112.457 E12.36599
G1 X137.971 Y117.189 E12.50741
G1 X137.736 Y119.874 E12.58744
G1 X136.718 Y123.291 E12.69331
G1 X135.809 Y125.190 E12.75583
G1 X134.380 Y127.259 E12.83048
G1 X133.755 Y128.034 E12.86004
G1 X132.327 Y129.559 E12.92208
G1 X131.769 Y130.090 E12.94495
G1 X130.112 Y131.486 E13.00928
G1 X110.052 Y147.033 E13.76283
G1 X109.311 Y147.545 E13.78959
G1 X108.627 Y147.967 E13.81342
G1 X107.834 Y148.400 E13.84024
G1 X107.109 Y148.748 E13.86413
G1 X106.274 Y149.096 E13.89100
G1 X105.515 Y149.367 E13.91493
G1 X104.646 Y149.626 E13.94185
G1 X103.862 Y149.815 E13.96580
G1 X102.970 Y149.982 E13.99274
G1 X102.169 Y150.088 E14.01672
G1 X101.264 Y150.160 E14.04368
G1 X100.456 Y150.181 E14.06767
G1 X99.549 Y150.157 E14.09463
G1 X98.743 Y150.093 E14.11862
G1 X97.842 Y149.974 E14.14562
G1 X97.050 Y149.826 E14.16954
G1 X95.941 Y149.549 E14.20346
G1 X95.395 Y149.382 E14.22041
G1 X94.542 Y149.078 E14.24730
G1 X93.495 Y148.629 E14.28115
G1 X92.984 Y148.377 E14.29806
G1 X92.279 Y147.992 E14.32192
G1 X91.315 Y147.389 E14.35566
G1 X90.851 Y147.062 E14.37252
G1 X90.138 Y146.513 E14.39924
G1 X89.650 Y146.098 E14.41825
G1 X89.234 Y145.711 E14.43512
G1 X88.832 Y145.311 E14.45198
G1 X88.288 Y144.722 E14.47578
G1 X87.572 Y143.847 E14.50934
G1 X86.921 Y142.927 E14.54279
G1 X86.383 Y142.035 E14.57374
G1 X85.864 Y141.009 E14.60787
G1 X85.502 Y140.023 E14.63907
G1 X85.253 Y139.024 E14.66963
G1 X85.120 Y137.208 E14.72368
G1 X85.197 Y136.318 E14.75022
G1 X85.518 Y134.913 E14.79301
G1 X87.906 Y128.003 E15.01007
G1 X88.084 Y127.544 E15.02469
G1 X88.390 Y126.873 E15.04660
G1 X88.691 Y126.294 E15.06598
G1 X89.010 Y125.775 E15.08405
G1 X89.724 Y124.725 E15.12175
G1 X90.010 Y124.335 E15.13613
G1 X104.483 Y106.015 E15.82933
G1 X106.171 Y103.971 E15.90804
G1 X107.236 Y102.750 E15.95613
G1 X107.535 Y102.952 F7800.000
G1 F1800
G1 X108.070 Y102.389 E15.97920
G1 X109.883 Y101.062 E16.04589
G1 X112.432 Y100.421 E16.12394
G1 X120.107 Y100.215 E16.35190
G1 X120.923 Y100.251 E16.37615
G1 X121.735 Y100.335 E16.40039
G1 X122.489 Y100.457 E16.42307
G1 X123.434 Y100.669 E16.45183
G1 X130.273 Y102.473 E16.66182
G1 X132.309 Y103.421 E16.72851
G1 X134.293 Y105.691 E16.81802
G1 X135.142 Y107.337 E16.87302
G1 X135.385 Y107.845 E16.88975
G1 X136.615 Y110.762 E16.98373
G1 X137.070 Y112.498 E17.03702
G1 X137.616 Y117.229 E17.17844
G1 X137.393 Y119.772 E17.25421
G1 X136.376 Y123.189 E17.36008
G1 X135.515 Y124.987 E17.41928
G1 X134.086 Y127.056 E17.49392
G1 X133.495 Y127.790 E17.52191
G1 X132.066 Y129.315 E17.58395
G1 X131.538 Y129.818 E17.60561
G1 X129.894 Y131.204 E17.66947
G1 X109.844 Y146.743 E18.42262
G1 X108.926 Y147.368 E18.45559
G1 X108.160 Y147.822 E18.48202
G1 X107.470 Y148.183 E18.50515
G1 X106.659 Y148.555 E18.53164
G1 X105.934 Y148.843 E18.55481
G1 X105.087 Y149.128 E18.58134
G1 X104.334 Y149.338 E18.60455
G1 X103.461 Y149.533 E18.63111
G1 X102.690 Y149.663 E18.65434
G1 X101.800 Y149.765 E18.68092
G1 X101.019 Y149.813 E18.70416
G1 X100.123 Y149.821 E18.73075
G1 X99.341 Y149.787 E18.75399
G1 X98.450 Y149.700 E18.78058
G1 X97.675 Y149.584 E18.80386
G1 X96.800 Y149.404 E18.83037
G1 X96.258 Y149.267 E18.84696
G1 X95.509 Y149.044 E18.87016
G1 X94.982 Y148.862 E18.88674
G1 X94.152 Y148.533 E18.91325
G1 X93.644 Y148.304 E18.92980
G1 X92.947 Y147.955 E18.95293
G1 X92.461 Y147.685 E18.96945
G1 X91.703 Y147.218 E18.99588
G1 X91.244 Y146.905 E19.01237
G1 X90.621 Y146.442 E19.03541
G1 X89.721 Y145.680 E19.07044
G1 X89.319 Y145.296 E19.08694
G1 X88.706 Y144.655 E19.11326
G1 X88.342 Y144.238 E19.12969
G1 X87.858 Y143.634 E19.15269
G1 X87.344 Y142.918 E19.17884
G1 X86.996 Y142.381 E19.19785
G1 X86.639 Y141.759 E19.21913
G1 X86.350 Y141.201 E19.23780
G1 X86.188 Y140.861 E19.24899
G1 X85.846 Y139.926 E19.27853
G1 X85.663 Y139.222 E19.30013
G1 X85.603 Y138.950 E19.30843
G1 X85.476 Y137.231 E19.35960
G1 X85.551 Y136.360 E19.38555
G1 X85.856 Y135.030 E19.42607
G1 X88.244 Y128.120 E19.64313
G1 X88.413 Y127.682 E19.65708
G1 X88.711 Y127.028 E19.67840
G1 X89.004 Y126.467 E19.69720
G1 X89.306 Y125.976 E19.71431
G1 X90.290 Y124.556 E19.76562
G1 X104.763 Y106.236 E20.45882
G1 X106.447 Y104.199 E20.53729
G1 X107.494 Y102.996 E20.58464
G1 E14.08464 F2400.00000
G92 E0
G1 X123.857 Y107.994 F7800.000
G1 E6.50000 F2400.00000
G1 F1800
G1 X123.799 Y108.136 E6.50454
G1 X123.594 Y108.124 E6.51064
G1 X120.857 Y107.660 E6.59306
G1 X118.059 Y107.325 E6.67673
G1 X117.857 Y107.277 E6.68289
G1 X117.843 Y107.124 E6.68747
G1 X118.426 Y106.939 E6.70563
G1 X118.693 Y106.881 E6.71375
G1 X119.247 Y106.805 E6.73035
G1 X120.083 Y106.773 E6.75521
G1 X120.651 Y106.809 E6.77210
G1 X121.489 Y106.944 E6.79730
G1 X122.032 Y107.086 E6.81395
G1 X122.561 Y107.273 E6.83061
G1 X123.184 Y107.557 E6.85096
G1 X123.812 Y107.954 E6.87300
G1 X123.730 Y108.080 F7800.000
G1 X123.324 Y107.877 F7800.000
G1 F1800
G1 X123.065 Y107.779 E6.87425
G1 F1800
G1 X122.750 Y107.682 E6.87823
G1 F1800
G1 X122.435 Y107.586 E6.88457
G1 F1800
G1 X121.919 Y107.452 E6.89869
G1 F1800
G1 X121.405 Y107.341 E6.91668
G1 X120.606 Y107.217 E6.94438
G1 X119.811 Y107.158 E6.97164
G1 F1800
G1 X119.276 Y107.136 E6.98714
G1 F1800
G1 X118.918 Y107.139 E6.99499
G1 F1800
G1 X118.554 Y107.150 E7.00023
G1 F1800
G1 X118.368 Y107.159 E7.00153
G1 Z0.200 F7800.000
G1 E0.50153 F2400.00000
G92 E0
G1 X113.912 Y107.080 F7800.000
G1 E6.50000 F2400.00000
G1 F1800
G1 X113.462 Y107.080 E6.51485
G1 X113.132 Y107.652 E6.53664
G1 X113.368 Y108.060 E6.55220
G1 X113.043 Y108.438 E6.56866
G1 X112.898 Y108.647 E6.57705
G1 X112.295 Y108.647 E6.59699
G1 X111.965 Y109.219 E6.61878
G1 X112.295 Y109.790 E6.64057
G1 X112.716 Y109.790 E6.65448
G1 X112.975 Y109.980 E6.66510
G1 X113.321 Y110.099 E6.67717
G1 X113.310 Y110.119 E6.67793
G1 X113.640 Y110.691 E6.69972
G1 X114.300 Y110.691 E6.72151
G1 X114.630 Y110.119 E6.74330
G1 X114.582 Y110.037 E6.74642
G1 X115.327 Y109.879 E6.77156
G1 X115.583 Y110.323 E6.78846
G1 X116.243 Y110.323 E6.81025
G1 X116.321 Y110.188 E6.81540
G1 X116.897 Y110.188 E6.83444
G1 X117.227 Y109.616 E6.85623
G1 X117.169 Y109.515 E6.86008
G1 X117.896 Y109.426 E6.88427
G1 X118.202 Y109.956 E6.90446
G1 X118.862 Y109.956 E6.92625
G1 X119.190 Y109.380 E6.94812
G1 X119.887 Y109.423 E6.97119
G1 X119.846 Y109.494 E6.97388
G1 X120.176 Y110.065 E6.99567
G1 X120.836 Y110.065 E7.01746
G1 X121.109 Y109.593 E7.03548
G1 X121.871 Y109.761 E7.06123
G1 X121.776 Y109.925 E7.06748
G1 X122.106 Y110.497 E7.08927
G1 X122.766 Y110.497 E7.11106
G1 X122.984 Y110.120 E7.12544
G1 X123.745 Y110.438 E7.15269
G1 X123.602 Y110.687 E7.16217
G1 X123.932 Y111.259 E7.18396
G1 X124.592 Y111.259 E7.20575
G1 X124.770 Y110.950 E7.21750
G1 X125.502 Y111.354 E7.24510
G1 X125.344 Y111.626 E7.25550
G1 X125.674 Y112.198 E7.27730
G1 X126.334 Y112.198 E7.29909
G1 X126.518 Y111.880 E7.31121
G1 X126.968 Y112.051 E7.32710
G1 X127.246 Y112.105 E7.33645
G1 X127.546 Y112.625 E7.35626
G1 X128.206 Y112.625 E7.37805
G1 X128.536 Y112.053 E7.39984
G1 X128.264 Y111.582 E7.41781
G1 X128.276 Y111.383 E7.42439
G1 X128.188 Y110.912 E7.44020
G1 X128.305 Y110.912 E7.44406
G1 X128.635 Y110.341 E7.46585
G1 X128.305 Y109.769 E7.48764
G1 X127.673 Y109.769 E7.50851
G1 X127.309 Y109.227 E7.53008
G1 X127.405 Y109.183 F7800.000
G1 F1800
G1 X127.598 Y109.518 E7.54285
G1 X128.258 Y109.518 E7.56464
G1 X128.588 Y108.946 E7.58643
G1 X128.451 Y108.710 E7.59546
G1 X128.651 Y108.620 F7800.000
G1 F1800
G1 X128.901 Y109.101 E7.61338
G1 X128.868 Y109.101 E7.61448
G1 X128.538 Y109.673 E7.63627
G1 X128.868 Y110.244 E7.65806
G1 X129.489 Y110.244 E7.67857
G1 X129.684 Y110.687 E7.69455
G1 X129.728 Y110.794 F7800.000
G1 F1800
G1 X129.776 Y110.924 E7.69911
G1 X129.630 Y110.924 E7.70394
G1 X129.300 Y111.495 E7.72573
G1 X129.630 Y112.067 E7.74752
G1 X130.084 Y112.067 E7.76251
G1 X130.099 Y112.152 E7.76536
G1 X130.143 Y112.636 E7.78142
G1 X130.135 Y112.877 E7.78939
G1 X129.716 Y112.877 E7.80323
G1 X129.386 Y113.449 E7.82502
G1 X129.716 Y114.021 E7.84681
G1 X129.807 Y114.021 E7.84982
G1 X129.762 Y114.114 E7.85323
G1 X129.665 Y114.314 F7800.000
G1 F1800
G1 X129.243 Y114.473 E7.86813
G1 X129.029 Y114.102 E7.88229
G1 X128.369 Y114.102 E7.90408
G1 X128.039 Y114.674 E7.92587
G1 X128.061 Y114.712 E7.92732
G1 X127.924 Y114.683 F7800.000
G1 F1800
G1 X127.473 Y114.591 E7.94252
G1 X127.320 Y114.527 E7.94801
G1 X127.460 Y114.284 E7.95726
G1 X127.130 Y113.713 E7.97905
G1 X126.470 Y113.713 E8.00084
G1 X126.313 Y113.984 E8.01118
G1 X126.159 Y113.882 F7800.000
G1 F1800
G1 X125.640 Y113.542 E8.03167
G1 X125.860 Y113.160 E8.04622
G1 X125.530 Y112.589 E8.06801
G1 X124.870 Y112.589 E8.08980
G1 X124.738 Y112.817 E8.09850
G1 X124.284 Y112.502 E8.11675
G1 X124.283 Y112.502 F7800.000
G1 F1800
G1 X124.125 Y112.411 E8.12279
G1 X124.041 Y112.364 F7800.000
G1 F1800
G1 X124.191 Y112.106 E8.13266
G1 X123.861 Y111.534 E8.15445
G1 X123.201 Y111.534 E8.17624
G1 X123.006 Y111.871 E8.18909
G1 X122.240 Y111.583 E8.21611
G1 X122.339 Y111.411 E8.22265
G1 X122.009 Y110.840 E8.24444
G1 X121.349 Y110.840 E8.26623
G1 X121.102 Y111.268 E8.28257
G1 X120.352 Y111.132 E8.30774
G1 X120.393 Y111.060 E8.31050
G1 X120.063 Y110.488 E8.33229
G1 X119.403 Y110.488 E8.35408
G1 X119.095 Y111.023 E8.37446
G1 X118.393 Y111.025 E8.39764
G1 X118.086 Y110.494 E8.41789
G1 X117.426 Y110.494 E8.43968
G1 X117.096 Y111.065 E8.46147
G1 X117.139 Y111.139 E8.46428
G1 X116.382 Y111.276 E8.48966
G1 X116.147 Y110.868 E8.50521
G1 X115.487 Y110.868 E8.52700
G1 X115.157 Y111.439 E8.54880
G1 X115.270 Y111.637 E8.55632
G1 X114.504 Y111.924 E8.58334
G1 X114.288 Y111.549 E8.59762
G1 X113.628 Y111.549 E8.61941
G1 X113.298 Y112.121 E8.64120
G1 X113.395 Y112.289 E8.64761
G1 X113.063 Y112.370 E8.65888
G1 X112.663 Y112.413 E8.67216
G1 X112.678 Y112.388 E8.67311
G1 X112.348 Y111.816 E8.69490
G1 X111.688 Y111.816 E8.71669
G1 X111.457 Y112.215 E8.73190
G1 X111.296 Y112.157 E8.73757
G1 X110.836 Y111.810 E8.75659
G1 X111.098 Y111.355 E8.77393
G1 X110.768 Y110.784 E8.79573
G1 X110.365 Y110.784 E8.80904
G1 X110.450 Y109.995 F7800.000
G1 F1800
G1 X110.979 Y109.995 E8.82649
G1 X111.309 Y109.423 E8.84829
G1 X110.979 Y108.852 E8.87008
G1 X110.942 Y108.852 E8.87130
G1 X111.345 Y108.250 F7800.000
G1 F1800
G1 X111.400 Y108.346 E8.87493
G1 X112.060 Y108.346 E8.89672
G1 X112.390 Y107.774 E8.91852
G1 X112.138 Y107.336 E8.93520
G1 X112.673 Y106.774 F7800.000
G1 F1800
G1 X112.762 Y106.927 E8.94103
G1 X113.422 Y106.927 E8.96282
G1 X113.529 Y106.741 E8.96989
G1 E2.46989 F2400.00000
G92 E0
G1 X111.735 Y110.535 F7800.000
G1 E6.50000 F2400.00000
G1 F1800
G1 X111.735 Y110.535 E6.50001
G1 X112.735 Y110.972 F7800.000
G1 F1800
G1 X112.735 Y110.972 E6.50001
G1 E0.00001 F2400.00000
G92 E0
G1 X109.751 Y110.177 F7800.000
G1 E6.50000 F2400.00000
G1 F1800
G1 X109.575 Y110.600 E6.51513
G1 X109.726 Y110.600 E6.52010
G1 X109.718 Y110.739 E6.52468
G1 X109.751 Y111.023 E6.53413
G1 X109.410 Y111.023 E6.54537
G1 X109.273 Y111.446 E6.56005
G1 X109.806 Y111.446 E6.57767
G1 X109.862 Y111.869 E6.59176
G1 X109.166 Y111.869 E6.61473
G1 X109.094 Y112.291 E6.62889
G1 X110.414 Y112.291 E6.67249
G1 X110.975 Y112.714 E6.69569
G1 X109.057 Y112.714 E6.75902
G1 E0.25902 F2400.00000
G92 E0
G1 X111.068 Y114.828 F7800.000
G1 E6.50000 F2400.00000
G1 F1800
G1 X111.597 Y114.738 E6.51773
G1 X112.063 Y114.564 E6.53413
G1 X112.359 Y114.406 E6.54522
G1 X109.714 Y114.406 E6.63257
G1 X109.313 Y114.116 E6.64891
G1 X109.269 Y113.983 E6.65352
G1 X113.021 Y113.983 E6.77739
G1 X113.604 Y113.560 E6.80117
G1 X109.138 Y113.560 E6.94860
G1 X109.077 Y113.281 E6.95805
G1 X109.066 Y113.137 E6.96280
G1 X114.315 Y113.137 E7.13612
G1 X114.904 Y112.864 E7.15755
G1 X115.285 Y112.714 E7.17107
G1 X114.199 Y112.714 E7.20695
G1 X115.337 Y112.291 E7.24705
G1 X116.756 Y112.291 E7.29389
G1 E0.79389 F2400.00000
G92 E0
G1 X120.855 Y111.869 F7800.000
G1 E6.50000 F2400.00000
G1 F1800
G1 X120.330 Y111.774 E6.51763
G1 X119.813 Y111.708 E6.53482
G1 X119.292 Y111.669 E6.55206
G1 X118.764 Y111.656 E6.56950
G1 X118.227 Y111.671 E6.58724
G1 X117.680 Y111.714 E6.60538
G1 X116.666 Y111.869 E6.63923
G1 X120.855 Y111.869 E6.77755
G1 X121.606 Y112.054 E6.80310
G1 X122.330 Y112.291 E6.82826
G1 X120.805 Y112.291 E6.87861
G1 X121.599 Y112.499 E6.90570
G1 X122.238 Y112.714 E6.92796
G1 X123.323 Y112.714 E6.96381
G1 X123.842 Y112.984 E6.98312
G1 X124.081 Y113.137 E6.99249
G1 X123.205 Y113.137 E7.02141
G1 E0.52141 F2400.00000
G92 E0
G1 X125.912 Y114.484 F7800.000
G1 E6.50000 F2400.00000
G1 F1800
G1 X125.769 Y114.484 E6.50471
G1 X125.769 Y114.903 E6.51856
G1 X126.595 Y114.903 E6.54583
G1 X127.285 Y115.204 E6.57067
