; generated by Slic3r 1.3.1-dev on 2018-08-15 at 01:20:15

; external perimeters extrusion width = 0.44mm (2.38mm^3/s)
; perimeters extrusion width = 0.56mm (6.20mm^3/s)
; infill extrusion width = 0.50mm (7.31mm^3/s)
; solid infill extrusion width = 0.56mm (2.07mm^3/s)
; top infill extrusion width = 0.56mm (1.55mm^3/s)
; support material extrusion width = 0.44mm (4.76mm^3/s)

M107
M190 S60 ; set bed temperature and wait for it to be reached
M104 S205 T1 ; set temperature
G28 ; home all axes
G1 Z5 F5000 ; lift nozzle

; Filament gcode

; Filament gcode

M109 S205 T1 ; set temperature and wait for it to be reached
G21 ; set units to millimeters
G90 ; use absolute coordinates
M82 ; use absolute distances for extrusion
G92 E0
G92 E0
T1
G1 Z0.200 F7800.000
G1 E-6.50000 F2400.00000
G92 E0
G1 X84.712 Y96.540 F7800.000
G1 E6.50000 F2400.00000
G1 F1800
G1 X85.517 Y95.844 E6.53160
G1 X86.505 Y95.043 E6.56936
G1 X87.575 Y94.233 E6.60922
G1 X88.846 Y93.346 E6.65523
G1 X89.739 Y92.767 E6.68684
G1 X90.857 Y92.091 E6.72564
G1 X92.213 Y91.339 E6.77166
G1 X93.161 Y90.855 E6.80326
G1 X94.343 Y90.297 E6.84207
G1 X95.768 Y89.689 E6.88808
G1 X96.761 Y89.305 E6.91968
G1 X97.994 Y88.872 E6.95849
G1 X99.474 Y88.413 E7.00450
G1 X100.501 Y88.133 E7.03611
G1 X101.772 Y87.829 E7.07492
G1 X103.292 Y87.525 E7.12093
G1 X104.342 Y87.352 E7.15253
G1 X105.603 Y87.185 E7.19028
G1 X106.939 Y87.053 E7.23016
G1 X108.486 Y86.960 E7.27616
G1 X109.550 Y86.932 E7.30777
G1 X110.857 Y86.939 E7.34657
G1 X112.405 Y87.006 E7.39259
G1 X113.466 Y87.088 E7.42419
G1 X114.730 Y87.225 E7.46194
G1 X116.059 Y87.415 E7.50180
G1 X117.584 Y87.693 E7.54782
G1 X118.624 Y87.920 E7.57942
G1 X119.892 Y88.238 E7.61823
G1 X121.380 Y88.671 E7.66424
G1 X122.391 Y89.003 E7.69584
G1 X123.619 Y89.450 E7.73465
G1 X125.055 Y90.034 E7.78067
G1 X126.026 Y90.468 E7.81227
G1 X127.202 Y91.039 E7.85108
G1 X128.570 Y91.767 E7.89709
G1 X129.700 Y92.424 E7.93590
G1 X130.603 Y92.988 E7.96750
G1 X131.889 Y93.853 E8.01351
G1 X132.751 Y94.477 E8.04512
G1 X133.785 Y95.276 E8.08392
G1 X134.792 Y96.110 E8.12274
G1 X135.947 Y97.143 E8.16875
G1 X136.715 Y97.880 E8.20035
G1 X137.631 Y98.813 E8.23916
G1 X138.674 Y99.959 E8.28517
G1 X139.362 Y100.770 E8.31677
G1 X140.155 Y101.765 E8.35453
G1 X140.956 Y102.843 E8.39440
G1 X141.832 Y104.121 E8.44040
G1 X142.403 Y105.019 E8.47201
G1 X143.070 Y106.143 E8.51082
G1 X143.810 Y107.505 E8.55683
G1 X144.286 Y108.457 E8.58844
G1 X144.833 Y109.643 E8.62724
G1 X145.430 Y111.074 E8.67325
G1 X145.887 Y112.298 E8.71206
G1 X146.228 Y113.307 E8.74366
G1 X146.608 Y114.557 E8.78247
G1 X146.945 Y115.820 E8.82128
G1 X147.288 Y117.332 E8.86729
G1 X147.529 Y118.616 E8.90610
G1 X147.693 Y119.668 E8.93770
G1 X147.879 Y121.206 E8.98372
G1 X147.970 Y122.267 E9.01533
G1 X148.041 Y123.572 E9.05413
G1 X148.068 Y125.121 E9.10014
G1 X148.050 Y126.186 E9.13174
G1 X147.987 Y127.491 E9.17055
G1 X147.854 Y129.035 E9.21657
G1 X147.726 Y130.092 E9.24817
G1 X147.529 Y131.384 E9.28698
G1 X147.238 Y132.906 E9.33299
G1 X147.003 Y133.944 E9.36459
G1 X146.683 Y135.175 E9.40235
G1 X146.302 Y136.462 E9.44222
G1 X145.805 Y137.930 E9.48822
G1 X145.430 Y138.926 E9.51983
G1 X144.931 Y140.134 E9.55863
G1 X144.286 Y141.543 E9.60465
G1 X143.810 Y142.495 E9.63625
G1 X143.189 Y143.646 E9.67506
G1 X142.403 Y144.981 E9.72107
G1 X141.698 Y146.082 E9.75988
G1 X141.096 Y146.960 E9.79148
G1 X140.324 Y148.014 E9.83029
G1 X139.362 Y149.230 E9.87630
G1 X138.513 Y150.223 E9.91511
G1 X137.797 Y151.011 E9.94673
G1 X136.715 Y152.120 E9.99273
G1 X135.947 Y152.857 E10.02434
G1 X134.975 Y153.731 E10.06314
G1 X133.785 Y154.724 E10.10915
G1 X132.945 Y155.377 E10.14076
G1 X131.889 Y156.147 E10.17956
G1 X130.806 Y156.880 E10.21838
G1 X129.492 Y157.701 E10.26439
G1 X128.358 Y158.351 E10.30319
G1 X127.418 Y158.851 E10.33481
G1 X126.026 Y159.532 E10.38081
G1 X125.054 Y159.966 E10.41242
G1 X123.845 Y160.463 E10.45122
G1 X122.391 Y160.997 E10.49723
G1 X121.380 Y161.329 E10.52883
G1 X120.126 Y161.698 E10.56764
G1 X118.860 Y162.024 E10.60645
G1 X117.346 Y162.355 E10.65247
G1 X116.299 Y162.545 E10.68407
G1 X115.006 Y162.739 E10.72288
G1 X113.466 Y162.912 E10.76889
G1 X112.405 Y162.994 E10.80050
G1 X111.099 Y163.054 E10.83930
G1 X109.550 Y163.068 E10.88531
G1 X108.486 Y163.040 E10.91692
G1 X107.216 Y162.968 E10.95467
G1 X105.879 Y162.847 E10.99453
G1 X104.342 Y162.648 E11.04055
G1 X103.292 Y162.475 E11.07215
G1 X102.009 Y162.223 E11.11097
G1 X100.501 Y161.867 E11.15697
G1 X99.474 Y161.587 E11.18857
G1 X98.258 Y161.215 E11.22633
G1 X96.988 Y160.779 E11.26619
G1 X95.543 Y160.220 E11.31220
G1 X94.343 Y159.703 E11.35101
G1 X93.379 Y159.251 E11.38262
G1 X91.998 Y158.547 E11.42863
G1 X91.068 Y158.030 E11.46023
G1 X89.975 Y157.379 E11.49798
G1 X88.846 Y156.654 E11.53784
G1 X87.575 Y155.767 E11.58386
G1 X86.724 Y155.128 E11.61546
G1 X85.703 Y154.311 E11.65427
G1 X84.531 Y153.298 E11.70028
G1 X83.749 Y152.575 E11.73189
G1 X82.818 Y151.658 E11.77070
G1 X81.756 Y150.530 E11.81671
G1 X81.053 Y149.730 E11.84831
G1 X80.221 Y148.722 E11.88712
G1 X79.281 Y147.490 E11.93313
G1 X78.664 Y146.623 E11.96474
G1 X77.940 Y145.535 E12.00354
G1 X77.131 Y144.213 E12.04956
G1 X76.491 Y143.073 E12.08837
G1 X75.999 Y142.130 E12.11997
G1 X75.431 Y140.952 E12.15878
G1 X74.810 Y139.532 E12.20479
G1 X74.332 Y138.316 E12.24360
G1 X73.974 Y137.313 E12.27521
G1 X73.502 Y135.837 E12.32121
G1 X73.214 Y134.813 E12.35282
G1 X72.899 Y133.544 E12.39162
G1 X72.582 Y132.027 E12.43764
G1 X72.400 Y130.979 E12.46924
G1 X72.217 Y129.684 E12.50805
G1 X72.078 Y128.385 E12.54686
G1 X71.972 Y126.839 E12.59287
G1 X71.935 Y125.774 E12.62449
G1 X71.931 Y124.468 E12.66328
G1 X71.984 Y122.919 E12.70930
G1 X72.057 Y121.857 E12.74090
G1 X72.184 Y120.592 E12.77865
G1 X72.362 Y119.261 E12.81852
G1 X72.627 Y117.734 E12.86453
G1 X72.845 Y116.693 E12.89613
G1 X73.152 Y115.422 E12.93494
G1 X73.572 Y113.930 E12.98095
G1 X73.896 Y112.916 E13.01255
G1 X74.332 Y111.684 E13.05136
G1 X74.903 Y110.244 E13.09738
G1 X75.330 Y109.268 E13.12898
G1 X75.890 Y108.088 E13.16778
G1 X76.607 Y106.713 E13.21380
G1 X77.131 Y105.787 E13.24540
G1 X77.791 Y104.700 E13.28316
G1 X78.527 Y103.577 E13.32302
G1 X79.425 Y102.314 E13.36903
G1 X80.071 Y101.468 E13.40063
G1 X80.896 Y100.455 E13.43944
G1 X81.919 Y99.291 E13.48546
G1 X82.649 Y98.516 E13.51706
G1 X83.574 Y97.593 E13.55587
G1 X84.667 Y96.580 E13.60010
G1 X84.945 Y96.810 F7800.000
G1 F1800
G1 X85.750 Y96.115 E13.63170
G1 X86.729 Y95.322 E13.66909
G1 X87.790 Y94.519 E13.70859
G1 X89.040 Y93.646 E13.75388
G1 X89.933 Y93.067 E13.78548
G1 X91.041 Y92.397 E13.82392
G1 X92.375 Y91.657 E13.86921
G1 X93.530 Y91.072 E13.90765
G1 X94.494 Y90.621 E13.93925
G1 X95.683 Y90.109 E13.97770
G1 X97.106 Y89.559 E14.02299
G1 X98.111 Y89.209 E14.05459
G1 X99.347 Y88.822 E14.09303
G1 X100.818 Y88.421 E14.13832
G1 X101.854 Y88.176 E14.16992
G1 X103.123 Y87.919 E14.20836
G1 X104.400 Y87.704 E14.24681
G1 X105.913 Y87.509 E14.29209
G1 X106.973 Y87.408 E14.32370
G1 X108.265 Y87.326 E14.36214
G1 X109.789 Y87.287 E14.40743
G1 X110.854 Y87.296 E14.43903
G1 X112.147 Y87.348 E14.47747
G1 X113.668 Y87.466 E14.52276
G1 X114.726 Y87.584 E14.55437
G1 X115.972 Y87.763 E14.59175
G1 X117.282 Y87.997 E14.63125
G1 X118.772 Y88.322 E14.67654
G1 X119.804 Y88.584 E14.70814
G1 X121.048 Y88.942 E14.74659
G1 X122.497 Y89.418 E14.79187
G1 X123.496 Y89.785 E14.82347
G1 X124.697 Y90.269 E14.86191
G1 X126.089 Y90.892 E14.90720
G1 X127.251 Y91.464 E14.94564
G1 X128.392 Y92.076 E14.98409
G1 X129.313 Y92.609 E15.01569
G1 X130.607 Y93.416 E15.06098
G1 X131.679 Y94.142 E15.09942
G1 X132.542 Y94.766 E15.13103
G1 X133.746 Y95.703 E15.17631
G1 X134.563 Y96.385 E15.20792
G1 X135.531 Y97.245 E15.24635
G1 X136.632 Y98.300 E15.29164
G1 X137.375 Y99.062 E15.32325
G1 X138.249 Y100.017 E15.36169
G1 X139.236 Y101.180 E15.40697
G1 X139.897 Y102.014 E15.43858
G1 X140.647 Y103.026 E15.47597
G1 X141.404 Y104.120 E15.51547
G1 X142.222 Y105.407 E15.56075
G1 X142.762 Y106.324 E15.59236
G1 X143.384 Y107.460 E15.63080
G1 X144.066 Y108.824 E15.67608
G1 X144.509 Y109.792 E15.70768
G1 X145.010 Y110.986 E15.74613
G1 X145.549 Y112.413 E15.79142
G1 X145.890 Y113.421 E15.82302
G1 X146.266 Y114.660 E15.86146
G1 X146.654 Y116.135 E15.90675
G1 X146.937 Y117.399 E15.94519
G1 X147.176 Y118.671 E15.98364
G1 X147.340 Y119.723 E16.01524
G1 X147.523 Y121.237 E16.06052
G1 X147.614 Y122.298 E16.09213
G1 X147.685 Y123.590 E16.13057
G1 X147.711 Y125.115 E16.17586
G1 X147.685 Y126.410 E16.21430
G1 X147.630 Y127.473 E16.24591
G1 X147.499 Y128.992 E16.29119
G1 X147.372 Y130.049 E16.32279
G1 X147.176 Y131.329 E16.36124
G1 X146.890 Y132.827 E16.40652
G1 X146.654 Y133.865 E16.43812
G1 X146.337 Y135.084 E16.47552
G1 X145.960 Y136.360 E16.51502
G1 X145.471 Y137.804 E16.56030
G1 X145.095 Y138.800 E16.59190
G1 X144.601 Y139.997 E16.63035
G1 X143.966 Y141.384 E16.67563
G1 X143.384 Y142.540 E16.71408
G1 X142.876 Y143.475 E16.74568
G1 X142.222 Y144.593 E16.78412
G1 X141.403 Y145.880 E16.82941
G1 X140.802 Y146.758 E16.86101
G1 X140.037 Y147.802 E16.89945
G1 X139.090 Y148.998 E16.94474
G1 X138.249 Y149.983 E16.98318
G1 X137.533 Y150.771 E17.01480
G1 X136.468 Y151.863 E17.06007
G1 X135.700 Y152.599 E17.09169
G1 X134.737 Y153.465 E17.13012
G1 X133.566 Y154.442 E17.17540
G1 X132.726 Y155.096 E17.20702
G1 X131.679 Y155.858 E17.24545
G1 X130.607 Y156.584 E17.28390
G1 X129.313 Y157.391 E17.32918
G1 X128.190 Y158.035 E17.36762
G1 X127.250 Y158.536 E17.39924
G1 X125.880 Y159.206 E17.44451
G1 X124.909 Y159.640 E17.47612
G1 X123.711 Y160.132 E17.51456
G1 X122.279 Y160.658 E17.55985
G1 X121.268 Y160.990 E17.59145
G1 X120.026 Y161.356 E17.62989
G1 X118.772 Y161.678 E17.66834
G1 X117.282 Y162.003 E17.71362
G1 X116.235 Y162.194 E17.74523
G1 X114.954 Y162.386 E17.78367
G1 X113.439 Y162.556 E17.82896
G1 X112.377 Y162.638 E17.86057
G1 X111.084 Y162.698 E17.89900
G1 X109.559 Y162.711 E17.94429
G1 X108.495 Y162.683 E17.97589
G1 X107.238 Y162.612 E18.01328
G1 X105.913 Y162.491 E18.05278
G1 X104.400 Y162.296 E18.09806
G1 X103.350 Y162.123 E18.12967
G1 X102.079 Y161.873 E18.16812
G1 X100.595 Y161.522 E18.21340
G1 X99.568 Y161.243 E18.24500
G1 X98.364 Y160.874 E18.28239
G1 X97.106 Y160.441 E18.32189
G1 X95.683 Y159.891 E18.36717
G1 X94.704 Y159.473 E18.39877
G1 X93.530 Y158.928 E18.43722
G1 X92.172 Y158.234 E18.48251
G1 X91.241 Y157.718 E18.51411
G1 X90.159 Y157.073 E18.55150
G1 X89.040 Y156.354 E18.59099
G1 X87.790 Y155.481 E18.63628
G1 X86.938 Y154.842 E18.66788
G1 X85.927 Y154.033 E18.70633
G1 X84.773 Y153.036 E18.75161
G1 X83.992 Y152.313 E18.78322
G1 X83.070 Y151.404 E18.82166
G1 X82.024 Y150.294 E18.86695
G1 X81.321 Y149.494 E18.89855
G1 X80.498 Y148.496 E18.93699
G1 X79.572 Y147.283 E18.98228
G1 X78.955 Y146.416 E19.01388
G1 X78.238 Y145.338 E19.05232
G1 X77.442 Y144.037 E19.09761
G1 X76.807 Y142.908 E19.13606
G1 X76.315 Y141.964 E19.16766
G1 X75.753 Y140.798 E19.20610
G1 X75.142 Y139.401 E19.25139
G1 X74.668 Y138.196 E19.28983
G1 X74.310 Y137.193 E19.32144
G1 X73.846 Y135.740 E19.36672
G1 X73.557 Y134.716 E19.39832
G1 X73.245 Y133.459 E19.43677
G1 X72.933 Y131.966 E19.48205
G1 X72.752 Y130.918 E19.51365
G1 X72.570 Y129.636 E19.55210
G1 X72.433 Y128.348 E19.59055
G1 X72.329 Y126.826 E19.63583
G1 X72.292 Y125.762 E19.66745
G1 X72.288 Y124.468 E19.70588
G1 X72.340 Y122.943 E19.75116
G1 X72.414 Y121.882 E19.78276
G1 X72.539 Y120.629 E19.82015
G1 X72.716 Y119.310 E19.85966
G1 X72.977 Y117.807 E19.90494
G1 X73.194 Y116.766 E19.93654
G1 X73.499 Y115.507 E19.97498
G1 X73.912 Y114.039 E20.02027
G1 X74.236 Y113.025 E20.05187
G1 X74.668 Y111.804 E20.09032
G1 X75.231 Y110.387 E20.13560
G1 X75.657 Y109.411 E20.16721
G1 X76.212 Y108.242 E20.20565
G1 X76.807 Y107.092 E20.24409
G1 X77.559 Y105.764 E20.28938
G1 X78.114 Y104.857 E20.32098
G1 X78.825 Y103.774 E20.35943
G1 X79.708 Y102.531 E20.40471
G1 X80.355 Y101.685 E20.43631
G1 X81.172 Y100.681 E20.47476
G1 X82.179 Y99.536 E20.52005
G1 X82.909 Y98.761 E20.55165
G1 X83.826 Y97.846 E20.59009
G1 X84.900 Y96.850 E20.63360
G1 X85.178 Y97.081 F7800.000
G1 F1800
G1 X85.984 Y96.385 E20.66520
G1 X86.953 Y95.600 E20.70222
G1 X88.004 Y94.805 E20.74136
G1 X89.234 Y93.946 E20.78592
G1 X90.128 Y93.367 E20.81752
G1 X91.225 Y92.703 E20.85560
G1 X92.538 Y91.975 E20.90016
G1 X93.485 Y91.491 E20.93176
G1 X94.645 Y90.944 E20.96984
G1 X96.026 Y90.355 E21.01440
G1 X97.018 Y89.971 E21.04600
G1 X98.228 Y89.546 E21.08408
G1 X99.662 Y89.102 E21.12864
G1 X100.689 Y88.822 E21.16024
G1 X101.936 Y88.524 E21.19832
G1 X103.408 Y88.230 E21.24288
G1 X104.458 Y88.057 E21.27448
G1 X105.694 Y87.893 E21.31151
G1 X107.006 Y87.764 E21.35065
G1 X108.504 Y87.674 E21.39520
G1 X109.568 Y87.646 E21.42681
G1 X110.851 Y87.653 E21.46488
G1 X112.350 Y87.718 E21.50944
G1 X113.411 Y87.800 E21.54104
G1 X114.651 Y87.935 E21.57807
G1 X115.955 Y88.122 E21.61720
G1 X117.432 Y88.391 E21.66176
G1 X118.472 Y88.618 E21.69337
G1 X119.716 Y88.930 E21.73144
G1 X121.157 Y89.349 E21.77600
G1 X122.168 Y89.682 E21.80760
G1 X123.373 Y90.120 E21.84568
G1 X124.763 Y90.686 E21.89024
G1 X125.932 Y91.213 E21.92832
G1 X126.889 Y91.680 E21.95993
G1 X128.213 Y92.386 E22.00448
G1 X129.135 Y92.918 E22.03608
G1 X130.225 Y93.594 E22.07417
G1 X131.470 Y94.431 E22.11872
G1 X132.332 Y95.056 E22.15033
G1 X133.347 Y95.840 E22.18840
G1 X134.334 Y96.659 E22.22649
G1 X135.453 Y97.659 E22.27104
G1 X136.221 Y98.395 E22.30265
G1 X137.119 Y99.311 E22.34073
G1 X138.129 Y100.421 E22.38528
G1 X138.818 Y101.233 E22.41689
G1 X139.595 Y102.208 E22.45392
G1 X140.381 Y103.266 E22.49305
G1 X141.229 Y104.504 E22.53761
G1 X141.801 Y105.402 E22.56921
G1 X142.455 Y106.506 E22.60729
G1 X143.171 Y107.824 E22.65185
G1 X143.647 Y108.776 E22.68346
G1 X144.184 Y109.941 E22.72153
G1 X144.681 Y111.123 E22.75961
G1 X145.210 Y112.527 E22.80417
G1 X145.551 Y113.536 E22.83577
G1 X145.924 Y114.763 E22.87385
G1 X146.306 Y116.214 E22.91841
G1 X146.586 Y117.466 E22.95649
G1 X146.786 Y118.511 E22.98809
G1 X146.987 Y119.778 E23.02617
G1 X147.167 Y121.268 E23.07073
G1 X147.258 Y122.328 E23.10234
G1 X147.328 Y123.609 E23.14041
G1 X147.354 Y125.109 E23.18497
G1 X147.328 Y126.391 E23.22305
G1 X147.273 Y127.454 E23.25465
G1 X147.145 Y128.950 E23.29921
G1 X147.017 Y130.006 E23.33081
G1 X146.823 Y131.274 E23.36889
G1 X146.542 Y132.748 E23.41345
G1 X146.306 Y133.786 E23.44505
G1 X145.992 Y134.993 E23.48208
G1 X145.618 Y136.257 E23.52122
G1 X145.137 Y137.678 E23.56577
G1 X144.761 Y138.674 E23.59738
G1 X144.271 Y139.859 E23.63545
G1 X143.647 Y141.224 E23.68001
G1 X143.070 Y142.370 E23.71809
G1 X142.562 Y143.305 E23.74969
G1 X141.914 Y144.412 E23.78777
G1 X141.109 Y145.678 E23.83233
G1 X140.507 Y146.556 E23.86393
G1 X139.749 Y147.591 E23.90201
G1 X138.818 Y148.767 E23.94657
G1 X138.129 Y149.579 E23.97817
G1 X137.269 Y150.530 E24.01627
G1 X136.221 Y151.605 E24.06081
G1 X135.453 Y152.341 E24.09243
G1 X134.499 Y153.199 E24.13050
G1 X133.347 Y154.160 E24.17505
G1 X132.506 Y154.814 E24.20666
G1 X131.470 Y155.569 E24.24474
G1 X130.408 Y156.288 E24.28282
G1 X129.135 Y157.082 E24.32738
G1 X128.213 Y157.614 E24.35898
G1 X127.082 Y158.221 E24.39707
G1 X125.735 Y158.880 E24.44162
G1 X124.763 Y159.314 E24.47322
G1 X123.576 Y159.801 E24.51130
G1 X122.168 Y160.318 E24.55586
G1 X120.948 Y160.715 E24.59394
G1 X119.926 Y161.013 E24.62554
G1 X118.684 Y161.332 E24.66362
G1 X117.218 Y161.652 E24.70818
G1 X116.171 Y161.843 E24.73978
G1 X114.902 Y162.033 E24.77786
G1 X113.411 Y162.200 E24.82242
G1 X112.349 Y162.282 E24.85403
G1 X111.069 Y162.341 E24.89210
G1 X109.568 Y162.354 E24.93666
G1 X108.504 Y162.326 E24.96826
G1 X107.259 Y162.255 E25.00529
G1 X105.946 Y162.136 E25.04442
G1 X104.458 Y161.943 E25.08898
G1 X103.408 Y161.770 E25.12058
G1 X102.149 Y161.522 E25.15867
G1 X100.689 Y161.178 E25.20322
G1 X99.662 Y160.898 E25.23482
G1 X98.470 Y160.533 E25.27185
G1 X97.223 Y160.104 E25.31098
G1 X95.824 Y159.563 E25.35554
G1 X94.645 Y159.056 E25.39362
G1 X93.681 Y158.605 E25.42522
G1 X92.345 Y157.922 E25.46978
G1 X91.414 Y157.406 E25.50138
G1 X90.343 Y156.767 E25.53841
G1 X89.234 Y156.054 E25.57754
G1 X88.004 Y155.195 E25.62210
G1 X87.153 Y154.557 E25.65370
G1 X86.151 Y153.755 E25.69179
