; generated by Slic3r 1.3.1-dev on 2018-08-12 at 20:56:27

; external perimeters extrusion width = 0.44mm (2.38mm^3/s)
; perimeters extrusion width = 0.56mm (6.20mm^3/s)
; infill extrusion width = 0.50mm (7.31mm^3/s)
; solid infill extrusion width = 0.56mm (2.07mm^3/s)
; top infill extrusion width = 0.56mm (1.55mm^3/s)
; support material extrusion width = 0.44mm (4.76mm^3/s)

M107
M190 S60 ; set bed temperature and wait for it to be reached
M104 S205 T1 ; set temperature
G28 ; home all axes
G1 Z5 F5000 ; lift nozzle

; Filament gcode

; Filament gcode

M109 S205 T1 ; set temperature and wait for it to be reached
G21 ; set units to millimeters
G90 ; use absolute coordinates
M82 ; use absolute distances for extrusion
G92 E0
G92 E0
T1
G1 Z0.200 F7800.000
G1 E-6.50000 F2400.00000
G92 E0
G1 X84.784 Y95.817 F7800.000
G1 E6.50000 F2400.00000
G1 F1800
G1 X86.574 Y94.363 E6.56847
G1 X86.971 Y94.061 E6.58329
G1 X88.553 Y92.944 E6.64078
G1 X90.563 Y91.687 E6.71117
G1 X92.589 Y90.587 E6.77964
G1 X93.036 Y90.363 E6.79446
G1 X95.196 Y89.386 E6.86484
G1 X97.412 Y88.544 E6.93523
G1 X99.257 Y87.958 E6.99272
G1 X101.553 Y87.368 E7.06311
G1 X101.978 Y87.275 E7.07601
G1 X104.310 Y86.853 E7.14640
G1 X106.232 Y86.616 E7.20389
G1 X108.597 Y86.457 E7.27428
G1 X110.968 Y86.444 E7.34466
G1 X113.271 Y86.572 E7.41313
G1 X113.768 Y86.616 E7.42796
G1 X116.119 Y86.920 E7.49834
G1 X118.022 Y87.275 E7.55583
G1 X120.325 Y87.839 E7.62622
G1 X122.588 Y88.544 E7.69661
G1 X122.998 Y88.688 E7.70951
G1 X124.804 Y89.386 E7.76700
G1 X126.964 Y90.363 E7.83739
G1 X129.060 Y91.470 E7.90777
G1 X129.437 Y91.687 E7.92068
G1 X131.084 Y92.705 E7.97817
G1 X133.029 Y94.061 E8.04855
G1 X134.836 Y95.494 E8.11703
G1 X135.216 Y95.817 E8.13185
G1 X136.962 Y97.421 E8.20223
G1 X138.605 Y99.129 E8.27262
G1 X139.964 Y100.713 E8.33457
G1 X151.881 Y115.184 E8.89117
G1 X153.059 Y117.240 E8.96154
G1 X153.493 Y119.679 E9.03509
G1 X153.493 Y128.363 E9.29294
G1 X153.096 Y130.700 E9.36331
G1 X152.155 Y132.502 E9.42368
G1 X141.408 Y147.388 E9.96882
G1 X140.141 Y149.064 E10.03121
G1 X139.867 Y149.402 E10.04411
G1 X138.312 Y151.191 E10.11450
G1 X136.962 Y152.579 E10.17199
G1 X135.216 Y154.183 E10.24238
G1 X133.426 Y155.637 E10.31085
G1 X133.029 Y155.939 E10.32567
G1 X131.084 Y157.295 E10.39605
G1 X129.060 Y158.530 E10.46644
G1 X127.354 Y159.444 E10.52394
G1 X125.205 Y160.445 E10.59432
G1 X123.059 Y161.289 E10.66279
G1 X122.588 Y161.456 E10.67761
G1 X120.743 Y162.042 E10.73510
G1 X118.447 Y162.632 E10.80549
G1 X116.182 Y163.068 E10.87396
G1 X115.689 Y163.147 E10.88878
G1 X113.335 Y163.424 E10.95917
G1 X111.402 Y163.543 E11.01666
G1 X109.032 Y163.556 E11.08704
G1 X106.729 Y163.428 E11.15551
G1 X106.232 Y163.384 E11.17033
G1 X103.881 Y163.080 E11.24072
G1 X101.978 Y162.725 E11.29821
G1 X99.675 Y162.161 E11.36860
G1 X97.473 Y161.476 E11.43707
G1 X97.002 Y161.312 E11.45189
G1 X95.196 Y160.614 E11.50937
G1 X93.036 Y159.637 E11.57976
G1 X92.646 Y159.444 E11.59267
G1 X90.563 Y158.313 E11.66306
G1 X88.553 Y157.056 E11.73344
G1 X86.971 Y155.939 E11.79093
G1 X85.114 Y154.466 E11.86132
G1 X83.351 Y152.881 E11.93171
G1 X81.688 Y151.191 E12.00209
G1 X81.395 Y150.870 E12.01500
G1 X80.036 Y149.287 E12.07695
G1 X68.119 Y134.816 E12.63355
G1 X67.361 Y133.877 E12.66941
G1 X66.951 Y133.314 E12.69006
G1 X66.649 Y132.855 E12.70638
G1 X66.116 Y131.882 E12.73932
G1 X65.715 Y130.992 E12.76831
G1 X65.328 Y129.905 E12.80256
G1 X65.078 Y128.044 E12.85832
G1 X65.078 Y124.268 E12.97043
G1 X65.340 Y122.361 E13.02759
G1 X65.625 Y121.344 E13.05895
G1 X66.295 Y119.743 E13.11045
G1 X66.733 Y118.976 E13.13670
G1 X67.156 Y118.322 E13.15981
G1 X78.608 Y102.589 E13.73759
G1 X79.859 Y100.936 E13.79916
G1 X80.133 Y100.598 E13.81207
G1 X81.688 Y98.809 E13.88246
G1 X83.038 Y97.421 E13.93994
G1 X84.739 Y95.857 E14.00855
G1 X85.024 Y96.081 F7800.000
G1 F1800
G1 X86.797 Y94.642 E14.07637
G1 X87.177 Y94.353 E14.09054
G1 X88.759 Y93.236 E14.14803
G1 X90.751 Y91.991 E14.21776
G1 X92.758 Y90.901 E14.28558
G1 X93.184 Y90.687 E14.29975
G1 X95.324 Y89.719 E14.36949
G1 X97.520 Y88.884 E14.43922
G1 X99.365 Y88.298 E14.49671
G1 X101.640 Y87.714 E14.56645
G1 X102.043 Y87.626 E14.57870
G1 X104.354 Y87.208 E14.64844
G1 X106.276 Y86.970 E14.70593
G1 X108.619 Y86.813 E14.77566
G1 X110.968 Y86.801 E14.84540
G1 X113.249 Y86.928 E14.91322
G1 X113.724 Y86.970 E14.92739
G1 X116.053 Y87.271 E14.99712
G1 X117.957 Y87.626 E15.05461
G1 X120.238 Y88.186 E15.12435
G1 X122.480 Y88.884 E15.19408
G1 X122.870 Y89.021 E15.20634
G1 X125.056 Y89.880 E15.27607
G1 X126.815 Y90.687 E15.33356
G1 X128.892 Y91.785 E15.40330
G1 X129.249 Y91.991 E15.41555
G1 X130.897 Y93.009 E15.47304
G1 X132.823 Y94.353 E15.54277
G1 X134.612 Y95.772 E15.61059
G1 X134.976 Y96.081 E15.62476
G1 X136.706 Y97.670 E15.69450
G1 X138.334 Y99.362 E15.76423
G1 X139.688 Y100.940 E15.82596
G1 X151.605 Y115.411 E16.38256
G1 X152.744 Y117.419 E16.45111
G1 X153.136 Y119.679 E16.51921
G1 X153.136 Y128.363 E16.77706
G1 X152.739 Y130.638 E16.84562
G1 X151.866 Y132.293 E16.90119
G1 X141.119 Y147.179 E17.44633
G1 X139.856 Y148.848 E17.50847
G1 X139.597 Y149.169 E17.52072
G1 X138.056 Y150.942 E17.59046
G1 X136.706 Y152.330 E17.64795
G1 X134.976 Y153.919 E17.71769
G1 X133.203 Y155.358 E17.78550
G1 X132.823 Y155.647 E17.79967
G1 X130.897 Y156.991 E17.86941
G1 X128.892 Y158.215 E17.93914
G1 X127.185 Y159.129 E17.99664
G1 X125.056 Y160.120 E18.06637
G1 X124.676 Y160.281 E18.07862
G1 X122.480 Y161.116 E18.14836
G1 X120.635 Y161.702 E18.20585
G1 X118.360 Y162.286 E18.27558
G1 X116.117 Y162.717 E18.34340
G1 X115.646 Y162.792 E18.35757
G1 X113.313 Y163.068 E18.42731
G1 X111.381 Y163.187 E18.48480
G1 X109.032 Y163.199 E18.55453
G1 X106.751 Y163.072 E18.62235
G1 X106.276 Y163.030 E18.63652
G1 X103.947 Y162.729 E18.70626
G1 X102.043 Y162.374 E18.76375
G1 X99.762 Y161.814 E18.83349
G1 X97.581 Y161.136 E18.90130
G1 X97.130 Y160.979 E18.91547
G1 X95.324 Y160.281 E18.97296
G1 X93.185 Y159.313 E19.04269
G1 X92.815 Y159.129 E19.05495
G1 X90.751 Y158.009 E19.12468
G1 X88.759 Y156.764 E19.19442
G1 X87.177 Y155.647 E19.25191
G1 X85.338 Y154.187 E19.32164
G1 X83.591 Y152.617 E19.39138
G1 X81.944 Y150.942 E19.46111
G1 X81.666 Y150.638 E19.47337
G1 X80.312 Y149.060 E19.53509
G1 X68.395 Y134.589 E20.09169
G1 X67.638 Y133.652 E20.12745
G1 X67.249 Y133.118 E20.14706
G1 X66.948 Y132.659 E20.16338
G1 X66.441 Y131.735 E20.19466
G1 X66.040 Y130.845 E20.22364
G1 X65.672 Y129.811 E20.25623
G1 X65.435 Y128.044 E20.30917
G1 X65.435 Y124.268 E20.42128
G1 X65.684 Y122.457 E20.47555
G1 X65.969 Y121.440 E20.50692
G1 X66.605 Y119.921 E20.55582
G1 X67.043 Y119.153 E20.58206
G1 X67.445 Y118.532 E20.60401
G1 X78.896 Y102.799 E21.18179
G1 X80.144 Y101.152 E21.24315
G1 X80.403 Y100.831 E21.25541
G1 X81.944 Y99.058 E21.32514
G1 X83.294 Y97.670 E21.38263
G1 X84.979 Y96.121 E21.45059
G1 X85.264 Y96.345 F7800.000
G1 F1800
G1 X87.383 Y94.645 E21.53127
G1 X88.965 Y93.528 E21.58875
G1 X90.938 Y92.295 E21.65784
G1 X93.333 Y91.012 E21.73852
G1 X95.453 Y90.052 E21.80760
G1 X97.628 Y89.224 E21.87669
G1 X99.473 Y88.639 E21.93418
G1 X101.727 Y88.061 E22.00326
G1 X104.398 Y87.562 E22.08394
G1 X106.320 Y87.325 E22.14143
G1 X108.641 Y87.170 E22.21051
G1 X110.968 Y87.158 E22.27960
G1 X113.227 Y87.285 E22.34677
G1 X113.680 Y87.325 E22.36028
G1 X115.988 Y87.622 E22.42937
G1 X117.891 Y87.977 E22.48686
G1 X120.151 Y88.532 E22.55595
G1 X122.741 Y89.354 E22.63662
G1 X124.907 Y90.204 E22.70571
G1 X126.666 Y91.012 E22.76319
G1 X129.062 Y92.295 E22.84387
G1 X131.035 Y93.528 E22.91296
G1 X132.929 Y94.880 E22.98204
G1 X134.439 Y96.091 E23.03953
G1 X136.169 Y97.647 E23.10862
G1 X138.063 Y99.595 E23.18930
G1 X139.413 Y101.167 E23.25079
G1 X151.329 Y115.638 E23.80739
G1 X152.428 Y117.597 E23.87409
G1 X152.779 Y119.679 E23.93678
G1 X152.779 Y128.363 E24.19463
G1 X152.382 Y130.574 E24.26132
G1 X151.576 Y132.084 E24.31215
G1 X140.829 Y146.970 E24.85728
G1 X139.571 Y148.633 E24.91918
G1 X137.800 Y150.693 E24.99986
G1 X136.450 Y152.081 E25.05735
G1 X134.736 Y153.655 E25.12643
G1 X132.617 Y155.355 E25.20711
G1 X130.709 Y156.688 E25.27619
G1 X128.723 Y157.900 E25.34528
G1 X127.016 Y158.814 E25.40277
G1 X124.907 Y159.796 E25.47185
G1 X122.372 Y160.776 E25.55253
G1 X120.527 Y161.361 E25.61002
G1 X118.273 Y161.939 E25.67910
G1 X115.602 Y162.438 E25.75978
G1 X113.291 Y162.711 E25.82887
G1 X111.359 Y162.830 E25.88636
G1 X109.032 Y162.842 E25.95544
G1 X106.773 Y162.715 E26.02261
G1 X106.320 Y162.675 E26.03613
G1 X104.012 Y162.378 E26.10521
G1 X102.109 Y162.023 E26.16270
G1 X99.849 Y161.468 E26.23179
G1 X97.259 Y160.646 E26.31246
G1 X95.093 Y159.796 E26.38155
G1 X93.334 Y158.988 E26.43904
G1 X90.938 Y157.705 E26.51972
G1 X88.965 Y156.472 E26.58880
G1 X87.383 Y155.356 E26.64629
G1 X85.561 Y153.909 E26.71537
G1 X83.831 Y152.353 E26.78446
G1 X81.936 Y150.405 E26.86514
G1 X80.587 Y148.833 E26.92664
G1 X68.671 Y134.362 E27.48324
G1 X67.916 Y133.428 E27.51888
G1 X67.548 Y132.923 E27.53745
G1 X67.247 Y132.463 E27.55378
G1 X66.767 Y131.589 E27.58339
G1 X66.366 Y130.699 E27.61237
G1 X66.017 Y129.717 E27.64330
G1 X65.793 Y128.044 E27.69342
G1 X65.793 Y124.268 E27.80553
G1 X66.028 Y122.553 E27.85692
G1 X66.313 Y121.536 E27.88828
G1 X66.915 Y120.098 E27.93458
G1 X67.353 Y119.330 E27.96083
G1 X67.733 Y118.743 E27.98161
G1 X79.185 Y103.010 E28.55939
G1 X80.429 Y101.367 E28.62055
G1 X82.200 Y99.307 E28.70123
G1 X83.550 Y97.919 E28.75872
G1 X85.220 Y96.386 E28.82602
G1 Z0.200 F7800.000
G1 E22.32602 F2400.00000
G92 E0
G1 X77.863 Y121.375 F7800.000
G1 E6.50000 F2400.00000
G1 F1800
G1 X77.863 Y119.768 E6.54772
G1 X77.149 Y119.840 E6.56904
G1 X77.149 Y123.251 E6.67031
G1 X76.435 Y123.251 E6.69151
G1 X76.435 Y119.987 E6.78842
G1 X75.912 Y120.130 E6.80450
G1 X75.720 Y120.216 E6.81075
G1 X75.720 Y123.251 E6.90086
G1 X75.006 Y123.251 E6.92207
G1 X75.006 Y120.541 E7.00253
G1 X74.292 Y121.010 E7.02789
G1 X74.292 Y123.251 E7.09444
G1 X73.578 Y123.251 E7.11564
G1 X73.578 Y121.637 E7.16357
G1 X73.484 Y121.722 E7.16736
G1 X72.864 Y122.500 E7.19688
G1 X72.864 Y123.251 E7.21919
G1 X72.435 Y123.251 E7.23193
G1 X72.864 Y122.500 E7.25762
G1 X72.150 Y124.268 F7800.000
G1 F1800
G1 X72.150 Y128.044 E7.36974
G1 X72.562 Y128.976 E7.40001
G1 X72.864 Y129.436 E7.41633
G1 X72.864 Y124.268 E7.56977
G1 X73.578 Y124.268 E7.59098
G1 X73.578 Y130.321 E7.77070
G1 X73.754 Y130.515 E7.77847
G1 X74.292 Y130.947 E7.79896
G1 X74.292 Y124.268 E7.99725
G1 X75.006 Y124.268 E8.01845
G1 X75.006 Y131.406 E8.23039
G1 X75.363 Y131.610 E8.24258
G1 X75.720 Y131.745 E8.25393
G1 X75.720 Y124.268 E8.47594
G1 X76.435 Y124.268 E8.49715
G1 X76.435 Y131.989 E8.72637
G1 X77.030 Y132.112 E8.74442
G1 X77.030 Y126.531 E8.91015
G1 X77.149 Y126.495 E8.91384
G1 X77.149 Y125.019 E8.95765
G1 X77.863 Y125.777 E8.98857
G1 X77.863 Y126.215 E9.00158
G1 X77.863 Y123.251 F7800.000
G1 F1800
G1 X77.929 Y123.251 E9.00356
G1 X78.041 Y121.893 E9.04401
G1 X77.863 Y121.870 E9.04935
G1 X77.863 Y123.251 E9.09036
G1 E2.59036 F2400.00000
G92 E0
G1 X142.137 Y124.488 F7800.000
G1 E6.50000 F2400.00000
G1 F1800
G1 X142.105 Y124.488 E6.50094
G1 X142.119 Y124.918 E6.51372
G1 X142.072 Y126.729 E6.56749
G1 X141.959 Y128.107 E6.60854
G1 X142.137 Y128.130 E6.61388
G1 X142.137 Y124.488 E6.72202
G1 X142.326 Y124.488 E6.72762
G1 X142.319 Y124.268 E6.73416
G1 X142.851 Y124.268 E6.74997
G1 X142.851 Y130.208 E6.92632
G1 X143.565 Y130.013 E6.94830
G1 X143.565 Y124.268 E7.11887
G1 X144.280 Y124.268 E7.14007
G1 X144.280 Y129.784 E7.30384
G1 X144.994 Y129.459 E7.32714
G1 X144.994 Y124.268 E7.48126
G1 X145.708 Y124.268 E7.50246
G1 X145.708 Y128.990 E7.64267
G1 X146.422 Y128.363 F7800.000
G1 F1800
G1 X146.422 Y119.679 E7.90052
G1 X146.246 Y119.485 E7.90830
G1 X145.708 Y119.053 E7.92878
G1 X145.708 Y123.449 E8.05929
G1 X144.994 Y123.192 E8.08182
G1 X144.994 Y118.594 E8.21834
G1 X144.637 Y118.390 E8.23054
G1 X144.280 Y118.255 E8.24189
G1 X144.280 Y123.031 E8.38371
G1 X143.565 Y123.031 E8.40491
G1 X143.565 Y118.011 E8.55395
G1 X142.851 Y117.863 E8.57561
G1 X142.851 Y123.031 E8.72906
G1 X142.281 Y123.031 E8.74600
G1 X142.274 Y122.811 E8.75253
G1 X142.137 Y122.811 E8.75660
G1 X142.137 Y117.816 E8.90492
G1 E2.40492 F2400.00000
G92 E0
G1 X142.137 Y128.130 F7800.000
G1 E6.50000 F2400.00000
G1 F1800
G1 X142.196 Y128.142 E6.50179
G1 X142.137 Y128.620 E6.51608
G1 X142.137 Y130.403 E6.56902
M140 S55 ; set bed temperature
G1 Z0.400 F7800.000
G1 Z0.400 F7800.000
G1 E0.06902 F2400.00000
G92 E0
G1 X141.980 Y128.088 F7800.000
G1 E6.50000 F2400.00000
G1 F2728.38
G1 X142.092 Y126.730 E6.54501
G1 X142.139 Y124.918 E6.60484
G1 X142.126 Y124.508 E6.61839
G1 X142.381 Y124.508 E6.62681
G1 X142.381 Y129.791 E6.80125
G1 X142.782 Y129.756 E6.81454
G1 X142.782 Y124.508 E6.98780
G1 X143.183 Y124.508 E7.00104
G1 X143.183 Y129.683 E7.17190
G1 X143.584 Y129.582 E7.18555
G1 X143.584 Y124.508 E7.35306
G1 X143.984 Y124.508 E7.36630
G1 X143.984 Y129.457 E7.52968
G1 X144.385 Y129.284 E7.54409
G1 X144.385 Y124.508 E7.70178
G1 X144.786 Y124.508 E7.71501
G1 X144.786 Y129.093 E7.86641
G1 X145.187 Y128.839 E7.88209
G1 X145.187 Y124.508 E8.02508
G1 X145.587 Y124.508 E8.03831
G1 X145.587 Y128.557 E8.17199
G1 X145.988 Y128.201 E8.18967
G1 X145.988 Y124.507 E8.31166
G1 X146.389 Y124.334 E8.32607
G1 X146.389 Y127.773 E8.43960
G1 X146.790 Y127.266 F7800.000
G1 F2728.38
G1 X146.790 Y124.508 E8.53067
G1 X146.790 Y127.266 E8.62174
G1 E2.12174 F2400.00000
G92 E0
G1 X146.790 Y122.791 F7800.000
G1 E6.50000 F2400.00000
G1 F2728.38
G1 X146.790 Y120.791 E6.56606
G1 X146.543 Y120.421 E6.58074
G1 X146.393 Y120.258 E6.58804
G1 X146.393 Y123.440 E6.69309
G1 X145.995 Y123.297 E6.70703
G1 X145.995 Y119.830 E6.82150
G1 X145.915 Y119.743 E6.82542
G1 X145.598 Y119.496 E6.83869
G1 X145.598 Y123.154 E6.95950
G1 X145.201 Y123.012 E6.97343
G1 X145.201 Y119.185 E7.09978
G1 X144.804 Y118.962 E7.11481
G1 X144.804 Y122.869 E7.24380
G1 X144.588 Y122.791 E7.25136
G1 X144.407 Y122.791 E7.25735
G1 X144.407 Y118.743 E7.39102
G1 X144.010 Y118.595 E7.40501
G1 X144.010 Y122.791 E7.54358
G1 X143.613 Y122.791 E7.55669
G1 X143.613 Y118.452 E7.69997
G1 X143.509 Y118.414 E7.70361
G1 X143.216 Y118.359 E7.71346
G1 X143.216 Y122.791 E7.85980
G1 X142.819 Y122.791 E7.87291
G1 X142.819 Y118.284 E8.02171
G1 X142.601 Y118.244 E8.02902
G1 X142.421 Y118.239 E8.03495
G1 X142.421 Y122.791 E8.18526
G1 X142.055 Y122.791 E8.19734
G1 X142.024 Y122.436 E8.20912
G1 X142.024 Y118.228 E8.34805
G1 X141.627 Y118.226 E8.36116
G1 E1.86116 F2400.00000
G92 E0
G1 X78.020 Y121.912 F7800.000
G1 E6.50000 F2400.00000
G1 F2728.38
G1 X78.020 Y121.912 E6.50000
G1 X77.595 Y123.231 F7800.000
G1 F2728.38
G1 X77.595 Y120.211 E6.59972
G1 X77.170 Y120.248 E6.61381
G1 X77.170 Y123.231 E6.71229
G1 X76.745 Y123.231 E6.72632
G1 X76.745 Y120.335 E6.82194
G1 X76.320 Y120.443 E6.83641
G1 X76.320 Y123.231 E6.92848
G1 X75.895 Y123.231 E6.94250
G1 X75.895 Y120.595 E7.02953
G1 X75.470 Y120.778 E7.04481
G1 X75.470 Y123.231 E7.12580
G1 X75.045 Y123.231 E7.13982
G1 X75.045 Y121.014 E7.21304
G1 X74.621 Y121.284 E7.22966
G1 X74.621 Y123.231 E7.29396
G1 X74.196 Y123.231 E7.30799
G1 X74.196 Y121.635 E7.36068
G1 X73.771 Y122.032 E7.37987
G1 X73.771 Y123.231 E7.41946
G1 X73.346 Y123.231 E7.43349
G1 X73.346 Y122.551 E7.45595
G1 X73.245 Y122.674 E7.46122
G1 X72.921 Y123.231 E7.48248
G1 E0.98248 F2400.00000
G92 E0
G1 X72.212 Y126.160 F7800.000
G1 E6.50000 F2400.00000
G1 F2728.38
G1 X72.314 Y127.080 E6.53058
G1 X72.560 Y127.971 E6.56109
G1 X72.618 Y128.098 E6.56569
G1 X72.618 Y124.508 E6.68421
G1 X73.024 Y124.508 E6.69761
G1 X73.024 Y128.930 E6.84361
G1 X73.430 Y129.539 E6.86776
G1 X73.430 Y124.508 E7.03385
G1 X73.836 Y124.508 E7.04725
G1 X73.836 Y129.988 E7.22817
G1 X74.085 Y130.257 E7.24030
G1 X74.241 Y130.379 E7.24684
G1 X74.241 Y124.508 E7.44069
G1 X74.647 Y124.508 E7.45409
G1 X74.647 Y130.697 E7.65842
G1 X74.813 Y130.826 E7.66537
G1 X75.053 Y130.959 E7.67443
G1 X75.053 Y124.508 E7.88742
G1 X75.459 Y124.508 E7.90082
G1 X75.459 Y131.183 E8.12121
G1 X75.622 Y131.273 E8.12734
G1 X75.865 Y131.360 E8.13588
G1 X75.865 Y126.616 E8.29253
G1 X75.791 Y126.568 E8.29545
G1 X75.677 Y126.447 E8.30093
G1 X75.595 Y126.302 E8.30642
